X:1
T:Mama's Shoes
C:Judi Stellar
M:4/4
K:C
"C"EGAc AGEC | EGAc "Am" A4 |"C"EGAc AGEC | "G7" FDDE D4|
"C"EGAc AGEC | EGAc "G"d4 | "Am"c'gga "C"gecd |1"G7"eAAG "C"c3G:|2"F"eAAG "G"cdcB||
|:"Am" A2 a4 g2 | "Em" e3f edcB | "Am"A2 a4 g2 | "C"e c-ce "G"ddBG | 
"Am"A2 a4 g2| "Em" e3f edcd | "Am"eaag "C" eccd |1"G7"eAAG "C"cdcB:|2"F"eAAG "C"c3G|]
